src/assets/img/svg/facebook.svg

<svg xmlns="http://www.w3.org/2000/svg" width="48" height="38" viewBox="0 0 48 38">
    <g fill="none" fill-rule="evenodd">
        <g>
            <g>
                <g>
                    <g>
                        <g>
                            <g>
                                <g>
                                    <g>
                                        <g>
                                            <g transform="translate(-331 -11178) translate(190 2311) translate(0 7047) translate(0 912) translate(0 574) translate(25 76) translate(0 228) translate(0 30) translate(116) translate(15 10)">
                                                <path fill="#FFF" fill-opacity="0" d="M4.846 5.712H13.154V12.289H4.846z"/>
                                                <circle cx="9" cy="9" r="1.558" fill="#327EF9" fill-rule="nonzero"/>
                                                <path fill="#FFF" fill-rule="nonzero" d="M8.942 9.463l-.223.216c-.025.025-.054.039-.09.037-.026-.001-.04-.012-.048-.036l-.169-.522c-.005-.017-.013-.025-.03-.03l-.396-.124c-.02-.007-.041-.015-.059-.027-.027-.018-.03-.048-.006-.07.022-.02.049-.037.077-.048.162-.064.324-.126.487-.189l1.235-.477c.079-.03.14.012.13.098-.005.054-.019.107-.03.16L9.551 9.72c-.021.1-.092.127-.174.066l-.414-.306-.021-.016zm-.31.128h.004c0-.005.002-.009.003-.012l.026-.288c.002-.02.009-.036.025-.05l.38-.344.422-.38c.008-.008.012-.021.018-.032-.013-.002-.027-.007-.04-.004-.016.004-.031.014-.046.023l-.93.586c-.017.011-.02.02-.014.04.023.065.044.132.065.198.03.088.058.176.086.263z"/>
                                                <g fill-rule="nonzero">
                                                    <circle cx="8.936" cy="8.936" r="8.936" fill="#3558D9"/>
                                                    <path fill="#FFF" d="M11.034 9.173H9.346v5.885h-2.25V9.173H5.885V7.27h1.211V5.886c0-.945.386-2.424 2.368-2.424h1.786v1.99H9.954c-.212 0-.608.105-.608.555V7.27h1.899l-.211 1.904z"/>
                                                </g>
                                            </g>
                                        </g>
                                    </g>
                                </g>
                            </g>
                        </g>
                    </g>
                </g>
            </g>
        </g>
    </g>
</svg>

<?xml version="1.0" encoding="UTF-8"?>
<svg width="18px" height="18px" viewBox="0 0 18 18" version="1.1" xmlns="http://www.w3.org/2000/svg" xmlns:xlink="http://www.w3.org/1999/xlink">
    <!-- Generator: Sketch 51.2 (57519) - http://www.bohemiancoding.com/sketch -->
    <title>facebook</title>
    <desc>Created with Sketch.</desc>
    <defs></defs>
    <g id="Page-1" stroke="none" stroke-width="1" fill="none" fill-rule="evenodd">
        <g id="facebook" fill-rule="nonzero">
            <polygon id="Shape" fill-opacity="0" fill="#FFFFFF" points="4.846 5.712 13.154 5.712 13.154 12.289 4.846 12.289"></polygon>
            <circle id="Oval" fill="#327EF9" cx="9" cy="9" r="1.558"></circle>
            <path d="M8.942,9.463 L8.719,9.679 C8.694,9.704 8.665,9.718 8.629,9.716 C8.603,9.715 8.589,9.704 8.581,9.68 L8.412,9.158 C8.407,9.141 8.399,9.133 8.382,9.128 L7.986,9.004 C7.966,8.997 7.945,8.989 7.927,8.977 C7.9,8.959 7.897,8.929 7.921,8.907 C7.943,8.887 7.97,8.87 7.998,8.859 C8.16,8.795 8.322,8.733 8.485,8.67 L9.72,8.193 C9.799,8.163 9.86,8.205 9.85,8.291 C9.845,8.345 9.831,8.398 9.82,8.451 L9.551,9.72 C9.53,9.82 9.459,9.847 9.377,9.786 L8.963,9.48 L8.942,9.464 L8.942,9.463 Z M8.632,9.591 L8.636,9.591 C8.636,9.586 8.638,9.582 8.639,9.579 L8.665,9.291 C8.667,9.271 8.674,9.255 8.69,9.241 L9.07,8.897 L9.492,8.517 C9.5,8.509 9.504,8.496 9.51,8.485 C9.497,8.483 9.483,8.478 9.47,8.481 C9.454,8.485 9.439,8.495 9.424,8.504 L8.494,9.09 C8.477,9.101 8.474,9.11 8.48,9.13 C8.503,9.195 8.524,9.262 8.545,9.328 C8.575,9.416 8.603,9.504 8.631,9.591 L8.632,9.591 Z" id="Shape" fill="#FFFFFF"></path>
            <g id="Group">
                <circle id="Oval" fill="#3558D9" cx="8.936" cy="8.936" r="8.936"></circle>
                <path d="M11.034,9.173 L9.346,9.173 L9.346,15.058 L7.096,15.058 L7.096,9.173 L5.885,9.173 L5.885,7.27 L7.096,7.27 L7.096,5.886 C7.096,4.941 7.482,3.462 9.464,3.462 L11.25,3.462 L11.25,5.452 L9.954,5.452 C9.742,5.452 9.346,5.557 9.346,6.007 L9.346,7.27 L11.245,7.27 L11.034,9.174 L11.034,9.173 Z" id="Shape" fill="#FFFFFF"></path>
            </g>
        </g>
    </g>
</svg>
